X:1
T:20 - Lasso dicea
T:Luca Marenzio (1556 - 1599) 1º Libro di Madrigali a quattro voci (Venetia, 1592)
T:Torquato Tasso
T:20 - Lasso dicea
T:© 2018 Ed. Marcos Mato
T:© 2018 Ed. Marcos Mato
T:© 2018 Ed. Marcos Mato
T:© 2018 Ed. Marcos Mato
T:© 2018 Ed. Marcos Mato
C:Luca Marenzio (1556 - 1599)
C:1º Libro di Madrigali a quattro voci (Venetia, 1592)
Z:Torquato Tasso
Z:© 2018 Ed. Marcos Mato
%%score [ 1 2 3 4 ]
L:1/8
M:4/4
K:F
V:1 treble nm="Soprano" snm="Sop."
V:2 alto2 nm="Alto" snm="A."
V:3 alto transpose=-12 nm="Tenor" snm="T."
V:4 bass3 nm="Basso" snm="Bajo"
V:1
 d4 | [Eg]2 |[M:4/2] z8 d8- | d4 ^c8 c4 | d8 z4 G4- | G4 A8 A4 | B4 c4 c8 | c8 z4 c4 | f12 e4 | %9
w: ||Las-|* so di-|cea per-|* che ve-|nis- ti\_A- mo-|re, A-|mor d'o-|
 d4 c4 B4 d4- | d4 c8 B4 | A16 | A8 z8 | z16 | z8 d8 | d4 d4 _e8- | e8 d8 | g6 g2 g4 f4 | %18
w: gni mio ben' in-|* vi- di-|o-|so,||con|le tue fiam-|* m'a|pe- ne- trar- mi\_il|
 _e6 d2 c8 | d16- | d8 z8 | z16 | z8 z4 A4- | A4 A4 =B8 | c4 G4 A8 | G4 A8 G4 | F16 | E16 | %28
w: co- * *|re|_||a|_ tur- bar|la mia pa-|ce,\_e'l mio ri-|po-|so?|
 z4 e8 f4 | d8 e8 | z8 z4 d4 | G2 F2 G2 A2 B8 | A4 f8 e4 | d4 c4 z4 B4 | B8 A4 A4- | A4 =B4 c8 | %36
w: Deh qual|van- to,|qual|glo- * * * *|ria, qual ho-|no- re n'as-|pet- ti,\_ò qual|_ tri- on-|
 G8 z4 g4- | g2 g2 g4 g6 fe | d6 e2 f2 c2 f4- | f2 ed e4 f4 c4 | d12 c4 | c6 B2 A8 | B8 B8 | %43
w: fo al-|* to\_e pom- po- * *||* * * * so d'ha-|ver un|pas- to- rel|pre- so\_et|
 B8 c8 | F8 z8 | z4 B8 A4 | B4 B2 c2 d4 G4 | B4 B4 A8 | A16 | z4 d8 c4 | d4 d2 e2 f8 | z4 B8 A4 | %52
w: a- vin-|to|ch'à l'in-|con- tro pri- mier si|die per vin-|to,|ch'à l'in-|con- tro pri- mier,|ch'à l'in-|
 B4 B2 c2 d4 G4 | B4 B4 A8 | A16 |] %55
w: con- tro pri- mier si|die per vin-|to.|
V:2
 A4 | [A,c]2 |[M:4/2] z8 A8- | A4 A8 A4 | =B8 z4 c4- | c4 c8 C4 | D4 F4 E8 | E8 z4 A,4 | A12 G4 | %9
w: ||Las-|* so di-|cea per-|* che ve-|nis- ti\_A- mo-|re, A-|mor d'o-|
 F4 E4 D4 B4- | B4 A8 G2 F2 | E4 D4 E8 | F4 A8 A4 | A4 B6 A2 G4- | G4 F4 B6 B2 | B4 A4 G2 A2 B4- | %16
w: gni mio ben' in-|* vi- * *|* di- o-|so, con le|tue fiam- * *|* m'a pe- ne-|trar- mi\_il co- * *|
 B2 AG A4 B8 | z4 B4 B6 B2 | G6 B2 F8 | F8 z8 | z16 | F12 F4 | G8 A4 E4 | F16 | E6 D2 C8 | %25
w: * * * * re,|a pe- ne-|trar- mi\_il co-|re||a tur-|bar la mia|pa-|* * ce,|
 z4 E4 F8- | F4 E4 D8 | ^C16 | z4 A8 A4 | G8 G8 | z4 B4 A2 G2 A2 B2 | c4 C4 D6 E2 | %32
w: e'l mio|_ ri- po-|so?|Deh qual|van- to,|qual glo- * * *|* ria,\_e qual _|
 F2 G2 A2 B2 c4 c4 | A8 F4 F4 | G8 F4 E4- | E4 G4 G4 G4 | z4 c6 c2 c4 | B8 B4 G4- | %38
w: _ _ _ _ _ ho-|no- re n'as-|pet- ti,\_ò qual|_ tri- on- fo|al- to\_e pom-|po- so, al-|
 G2 G2 G4 A6 GF | G8 F4 A4 | B12 A4 | A6 G2 ^F8 | G8 G8 | G8 _E8 | D8 z8 | z4 G8 ^F4 | %46
w: * to\_e pom- po- * *|* so d'ha-|ver un|pas- to- rel|pre- so\_et|a- vin-|to|ch'à l'in-|
 G4 G2 A2 B6 A2 | G4 F4 E8 | F8 z8 | z4 B8 A4 | B4 B2 G2 F8 | z4 G8 ^F4 | G4 G2 A2 B6 A2 | %53
w: con- tro pri- mier si|die per vin-|to,|ch'à l'in-|con- tro pri- mier,|ch'à l'in-|con- tro pri- mier si|
 G4 F4 E8 | ^F16 |] %55
w: die per vin-|to.|
V:3
 F4 | [F,A]2 |[M:4/2] z8 F8- | F4 E8 E4 | G8 z4 E4- | E4 F8 E4 | G4 A4 G8 | G8 C4 F4 | %8
w: ||Las-|* so di-|cea per-|* che ve-|nis- ti\_A- mo-|re, A- mor,|
 z4 F,4 C6 C2 | A,4 A4 G8 | F8 D8 | ^C4 D8 C4 | D8 F8 | F4 F4 G8 | A8 G6 G2 | G4 F4 _E6 D2 | %16
w: A- mor d'o-|gni mio ben'|in- vi-|dio- * *|so, con|le tue fiam-|m'a pe- ne-|trar- mi\_il co- *|
 C8 B,4 F4 | _E6 E2 E4 D4 | C2 B,2 B,8 A,4 | z4 F8 F4 | G8 A4 E4 | A8 D8 | D6 E2 F4 C4 | D16 | %24
w: * re, a|pe- ne- trar- mi\_il|co- * * re|a tur-|bar la mia|pac', e'l|mi- * o ri-|po-|
 C8 z4 F,4 | C12 B,4 | A,16 | A,16 | z4 ^C8 D4 | =B,2 =C4 B,2 C4 E4 | D2 C2 D2 E2 F8 | E6 F2 G8 | %32
w: so, e'l|mio ri-|po-|so?|Deh qual|van- * * to, qual|glo- * * * *|ria, _ _|
 z4 F4 A4 G4 | F4 E4 D8 | D8 D4 ^C4- | C4 D4 E4 E4- | E2 E2 E4 E6 D=C | D8 D4 z4 | z2 D4 C2 C8- | %39
w: e qual ho-|no- re n'as-|pet- ti,\_ò qual|_ tri- on- fo\_al-|* to\_e pom- po- * *|* so,|e pom- po-|
 C8 C8 | z4 F4 F4 F4 | F6 D2 D4 D4- | D4 D8 D4 | G,2 A,2 B,6 A,G, A,4 | B,4 D8 C4 | D4 D4 z4 D4- | %46
w: * so|d'ha- ver un|pas- to- rel pre-|* so\_et a-|vin- * * * * *|to ch'à l'in-|con- tro, si|
 D4 _E4 D4 E4- | E2 D2 D8 ^C4 | D4 F8 =E4 | D4 D2 E2 F8 | z4 D8 C4 | D4 D4 z4 D4- | D4 _E4 D4 E4- | %53
w: _ die per vin-||to, ch'à l'in-|con- tro pri- mier,|ch'à l'in-|con- tro si|_ die per vin-|
 E2 D2 D8 ^C4 | D16 |] %55
w: |to.|
V:4
 D4 | [A,,_E]2 |[M:4/2] D16 | A,12 A,4 | G,8 z4 C4- | C4 F,8 A,4 | G,4 F,4 C8 | C4 C,4 F,8- | %8
w: ||Las-|so di-|cea per-|* che ve-|nis- ti\_A- mo-|re, A- mor|
 F,4 D,4 F,8 | F,8 G,8 | D,4 F,8 G,4 | A,16 | D,8 D8 | D4 D4 _E8 | D8 z8 | z16 | z8 z4 B,4 | %17
w: _ d'o- gni|mio ben'|in- vi- di-|o-|so, con|le tue fiam-|me||a|
 _E,6 E,2 E,8 |"^b" _E,8 F,8 | B,,8 B,8- | B,4 B,4 C8 | D4 A,4 B,8- | B,8 A,8 | z16 | z4 C,4 F,8 | %25
w: pe- ne- trar-|mi\_il co-|re a|_ tur- bar|la mia pa-|* ce,||e'l mio|
 C,8 D,8- | D,16 | A,,16 | A,12 D,4 | G,8 C,4 C4 | B,2 A,2 B,2 C2 D8 | C8 G,4 G,4 | C8 A,8 | %33
w: ri- po-||so?|Deh qual|van- to, qual|glo- * * * *|ria, qual ho-|no- re|
 F,8 B,6 A,2 | G,8 D,4 A,4- | A,4 G,4 C,4 C4- | C2 C2 C4 C6 B,A, | G,6 A,2 B,2 G,2 C4- | %38
w: n'as- pet- *|* ti,\_ò qual|_ tri- on- fo\_al-|* to\_e pom- po- * *||
 C2"^§" =B,A, B,2 C2 F,6 E,D, | C,8 F,8 | z4 B,,4 B,4 F,4 | F,6 G,2 D,8 | G,8 G,4 F,4 | %43
w: |* so|d'ha- ver un|pas- to- rel|pre- so\_et a-|
 _E,6 D,2 C,8 | B,,4 B,8 A,4 | B,4 B,2 C2 D8 | G,8 G,8 | G,8 A,8 | D,4 D8 C4 | B,4 B,2 G,2 F,8 | %50
w: vin- * *|to ch'à l'in-|con- tro pri- mier|si die|per vin-|to, ch'à l'in-|con- tro pri- mier,|
 z4 B,8 A,4 | B,4 B,2 C2 D8 | G,8 G,8 | G,8 A,8 | D,16 |] %55
w: ch'à l'in-|con- tro pri- mier|si die|per vin-|to.|

